svg/color/alter.svg

<?xml version="1.0" encoding="UTF-8" ?>
<!DOCTYPE svg PUBLIC "-//W3C//DTD SVG 1.1//EN" "http://www.w3.org/Graphics/SVG/1.1/DTD/svg11.dtd">
<svg width="250pt" height="250pt" viewBox="0 0 250 250" version="1.1" xmlns="http://www.w3.org/2000/svg">
<g id="#ffffffff">
<path fill="#ffffff" opacity="1.00" d=" M 0.00 0.00 L 120.57 0.00 C 108.91 1.51 97.07 2.78 85.93 6.81 C 70.93 12.22 56.27 19.54 44.54 30.53 C 27.13 44.63 14.46 64.06 7.09 85.11 C 2.78 96.47 1.60 108.64 0.00 120.59 L 0.00 0.00 Z" />
<path fill="#ffffff" opacity="1.00" d=" M 129.42 0.00 L 250.00 0.00 L 250.00 117.60 C 248.27 101.27 244.80 84.90 237.21 70.20 C 223.33 42.19 198.84 19.42 169.43 8.56 C 156.73 3.28 142.96 1.61 129.42 0.00 Z" />
<path fill="#ffffff" opacity="1.00" d=" M 84.83 15.74 C 107.31 7.39 132.43 6.30 155.56 12.61 C 181.69 19.68 205.14 36.16 220.59 58.41 C 226.17 66.13 230.22 74.78 234.15 83.42 C 235.20 88.01 236.90 92.41 238.01 96.98 C 244.39 122.39 241.88 149.99 230.75 173.73 C 219.68 198.05 199.83 218.25 175.73 229.79 C 144.97 245.01 107.35 245.30 76.30 230.71 C 71.27 228.41 66.55 225.49 61.62 222.99 C 58.25 220.50 54.87 218.03 51.60 215.41 C 28.36 196.65 12.78 168.60 9.40 138.90 C 6.62 115.93 10.87 92.13 21.58 71.61 C 34.72 45.98 57.77 25.62 84.83 15.74 M 116.68 35.63 C 115.76 37.51 114.28 39.52 114.47 41.66 C 113.36 43.90 112.51 46.26 111.70 48.63 C 101.13 79.06 90.46 109.46 79.86 139.88 C 78.81 142.91 77.59 145.90 76.87 149.04 C 71.84 160.98 68.33 173.53 63.66 185.63 C 62.01 189.66 61.12 195.05 64.55 198.43 C 67.31 201.83 72.27 202.63 76.22 201.09 C 79.19 199.79 80.98 196.89 81.94 193.91 C 86.45 181.07 90.97 168.24 95.49 155.40 C 96.27 153.05 97.38 150.77 97.70 148.29 C 107.11 122.91 115.56 97.18 124.91 71.78 C 125.57 73.51 126.44 75.15 127.04 76.90 C 133.32 95.26 139.86 113.52 146.18 131.87 C 146.92 134.05 147.71 136.23 148.75 138.29 C 155.02 157.43 161.97 176.37 168.59 195.39 C 170.61 201.78 179.56 203.91 184.42 199.44 C 188.08 196.50 188.56 191.18 186.85 187.05 C 180.01 168.26 173.72 149.25 166.72 130.52 C 166.57 129.63 166.36 128.76 166.09 127.90 C 155.67 98.31 145.27 68.71 134.86 39.11 C 134.11 37.07 133.19 34.96 131.47 33.54 C 127.25 29.72 119.52 30.49 116.68 35.63 M 119.49 124.69 C 116.36 125.72 113.85 128.66 113.62 131.99 C 113.04 136.37 116.67 140.57 121.02 140.85 C 126.24 141.25 132.91 142.25 136.72 137.77 C 140.54 133.27 137.53 125.49 131.78 124.57 C 127.70 124.33 123.55 124.18 119.49 124.69 Z" />
<path fill="#ffffff" opacity="1.00" d=" M 0.00 129.42 C 1.02 136.60 1.52 143.87 3.07 150.97 C 8.97 179.24 25.11 205.27 47.89 223.03 C 62.15 234.71 79.31 242.64 97.22 246.77 C 104.24 248.46 111.45 249.08 118.60 250.00 L 0.00 250.00 L 0.00 129.42 Z" />
<path fill="#ffffff" opacity="1.00" d=" M 231.41 190.42 C 242.61 172.77 248.35 152.13 250.00 131.40 L 250.00 250.00 L 131.40 250.00 C 142.07 248.83 152.79 247.46 163.00 244.00 C 191.26 235.15 215.97 215.67 231.41 190.42 Z" />
</g>
<g id="#5c3b85ff">
<path fill="#5c3b85" opacity="1.00" d=" M 120.57 0.00 L 129.42 0.00 C 142.96 1.61 156.73 3.28 169.43 8.56 C 198.84 19.42 223.33 42.19 237.21 70.20 C 235.46 71.18 233.75 72.23 232.05 73.30 C 232.58 76.74 235.12 79.78 234.15 83.42 C 230.22 74.78 226.17 66.13 220.59 58.41 C 205.14 36.16 181.69 19.68 155.56 12.61 C 132.43 6.30 107.31 7.39 84.83 15.74 C 57.77 25.62 34.72 45.98 21.58 71.61 C 10.87 92.13 6.62 115.93 9.40 138.90 C 12.78 168.60 28.36 196.65 51.60 215.41 C 54.87 218.03 58.25 220.50 61.62 222.99 C 58.29 224.38 55.61 221.89 52.86 220.39 C 51.11 221.08 49.50 222.06 47.89 223.03 C 25.11 205.27 8.97 179.24 3.07 150.97 C 1.52 143.87 1.02 136.60 0.00 129.42 L 0.00 120.59 C 1.60 108.64 2.78 96.47 7.09 85.11 C 14.46 64.06 27.13 44.63 44.54 30.53 C 56.27 19.54 70.93 12.22 85.93 6.81 C 97.07 2.78 108.91 1.51 120.57 0.00 Z" />
<path fill="#5c3b85" opacity="1.00" d=" M 114.47 41.66 C 118.24 51.58 122.18 61.51 124.91 71.78 C 115.56 97.18 107.11 122.91 97.70 148.29 C 96.70 145.92 95.74 143.43 93.93 141.54 C 90.39 142.62 86.83 143.63 83.22 144.39 C 80.00 144.98 78.97 148.57 77.08 150.80 C 77.03 150.36 76.92 149.48 76.87 149.04 C 77.59 145.90 78.81 142.91 79.86 139.88 C 90.46 109.46 101.13 79.06 111.70 48.63 C 112.51 46.26 113.36 43.90 114.47 41.66 Z" />
<path fill="#5c3b85" opacity="1.00" d=" M 163.70 133.99 C 164.76 132.88 165.75 131.71 166.72 130.52 C 173.72 149.25 180.01 168.26 186.85 187.05 C 188.56 191.18 188.08 196.50 184.42 199.44 C 179.56 203.91 170.61 201.78 168.59 195.39 C 161.97 176.37 155.02 157.43 148.75 138.29 C 151.35 135.84 153.92 132.76 157.70 132.29 C 159.89 131.75 161.77 133.23 163.70 133.99 Z" />
</g>
<g id="#78549eff">
<path fill="#78549e" opacity="1.00" d=" M 116.68 35.63 C 119.52 30.49 127.25 29.72 131.47 33.54 C 133.19 34.96 134.11 37.07 134.86 39.11 C 145.27 68.71 155.67 98.31 166.09 127.90 C 166.36 128.76 166.57 129.63 166.72 130.52 C 165.75 131.71 164.76 132.88 163.70 133.99 C 161.77 133.23 159.89 131.75 157.70 132.29 C 153.92 132.76 151.35 135.84 148.75 138.29 C 147.71 136.23 146.92 134.05 146.18 131.87 C 139.86 113.52 133.32 95.26 127.04 76.90 C 126.44 75.15 125.57 73.51 124.91 71.78 C 122.18 61.51 118.24 51.58 114.47 41.66 C 114.28 39.52 115.76 37.51 116.68 35.63 Z" />
<path fill="#78549e" opacity="1.00" d=" M 237.21 70.20 C 244.80 84.90 248.27 101.27 250.00 117.60 L 250.00 131.40 C 248.35 152.13 242.61 172.77 231.41 190.42 C 215.97 215.67 191.26 235.15 163.00 244.00 C 152.79 247.46 142.07 248.83 131.40 250.00 L 118.60 250.00 C 111.45 249.08 104.24 248.46 97.22 246.77 C 79.31 242.64 62.15 234.71 47.89 223.03 C 49.50 222.06 51.11 221.08 52.86 220.39 C 55.61 221.89 58.29 224.38 61.62 222.99 C 66.55 225.49 71.27 228.41 76.30 230.71 C 107.35 245.30 144.97 245.01 175.73 229.79 C 199.83 218.25 219.68 198.05 230.75 173.73 C 241.88 149.99 244.39 122.39 238.01 96.98 C 236.90 92.41 235.20 88.01 234.15 83.42 C 235.12 79.78 232.58 76.74 232.05 73.30 C 233.75 72.23 235.46 71.18 237.21 70.20 Z" />
<path fill="#78549e" opacity="1.00" d=" M 119.49 124.69 C 123.55 124.18 127.70 124.33 131.78 124.57 C 137.53 125.49 140.54 133.27 136.72 137.77 C 132.91 142.25 126.24 141.25 121.02 140.85 C 116.67 140.57 113.04 136.37 113.62 131.99 C 113.85 128.66 116.36 125.72 119.49 124.69 Z" />
<path fill="#78549e" opacity="1.00" d=" M 83.22 144.39 C 86.83 143.63 90.39 142.62 93.93 141.54 C 95.74 143.43 96.70 145.92 97.70 148.29 C 97.38 150.77 96.27 153.05 95.49 155.40 C 90.97 168.24 86.45 181.07 81.94 193.91 C 80.98 196.89 79.19 199.79 76.22 201.09 C 72.27 202.63 67.31 201.83 64.55 198.43 C 61.12 195.05 62.01 189.66 63.66 185.63 C 68.33 173.53 71.84 160.98 76.87 149.04 C 76.92 149.48 77.03 150.36 77.08 150.80 C 78.97 148.57 80.00 144.98 83.22 144.39 Z" />
</g>
</svg>

<?xml version="1.0" encoding="utf-8"?>
<!-- Generator: Adobe Illustrator 26.0.3, SVG Export Plug-In . SVG Version: 6.00 Build 0)  -->
<svg version="1.1" id="Layer_1" xmlns="http://www.w3.org/2000/svg" xmlns:xlink="http://www.w3.org/1999/xlink" x="0px" y="0px"
	 viewBox="0 0 250 250" style="enable-background:new 0 0 250 250;" xml:space="preserve">
<style type="text/css">
	.st0{fill:#FFFFFF;}
	.st1{fill:#5C3B85;}
	.st2{fill:#78549E;}
</style>
<g id="_x23_ffffffff">
	<path class="st0" d="M84.8,15.7c22.5-8.4,47.6-9.4,70.7-3.1c26.1,7.1,49.6,23.5,65,45.8c5.6,7.7,9.6,16.4,13.6,25
		c1.1,4.6,2.8,9,3.9,13.6c6.4,25.4,3.9,53-7.3,76.7c-11.1,24.3-30.9,44.5-55,56.1c-30.8,15.2-68.4,15.5-99.4,0.9
		c-5-2.3-9.8-5.2-14.7-7.7c-3.4-2.5-6.8-5-10-7.6c-23.2-18.8-38.8-46.8-42.2-76.5c-2.8-23,1.5-46.8,12.2-67.3
		C34.7,46,57.8,25.6,84.8,15.7 M116.7,35.6c-0.9,1.9-2.4,3.9-2.2,6c-1.1,2.2-2,4.6-2.8,7c-10.6,30.4-21.2,60.8-31.8,91.2
		c-1.1,3-2.3,6-3,9.2c-5,11.9-8.5,24.5-13.2,36.6c-1.7,4-2.5,9.4,0.9,12.8c2.8,3.4,7.7,4.2,11.7,2.7c3-1.3,4.8-4.2,5.7-7.2
		c4.5-12.8,9-25.7,13.5-38.5c0.8-2.3,1.9-4.6,2.2-7.1c9.4-25.4,17.9-51.1,27.2-76.5c0.7,1.7,1.5,3.4,2.1,5.1
		c6.3,18.4,12.8,36.6,19.1,55c0.7,2.2,1.5,4.4,2.6,6.4c6.3,19.1,13.2,38.1,19.8,57.1c2,6.4,11,8.5,15.8,4.1
		c3.7-2.9,4.1-8.3,2.4-12.4c-6.8-18.8-13.1-37.8-20.1-56.5c-0.1-0.9-0.4-1.8-0.6-2.6c-10.4-29.6-20.8-59.2-31.2-88.8
		c-0.8-2-1.7-4.2-3.4-5.6C127.2,29.7,119.5,30.5,116.7,35.6 M119.5,124.7c-3.1,1-5.6,4-5.9,7.3c-0.6,4.4,3,8.6,7.4,8.9
		c5.2,0.4,11.9,1.4,15.7-3.1c3.8-4.5,0.8-12.3-4.9-13.2C127.7,124.3,123.6,124.2,119.5,124.7z"/>
</g>
<g id="_x23_5c3b85ff">
	<path class="st1" d="M120.6,0h8.8c13.5,1.6,27.3,3.3,40,8.6c29.4,10.9,53.9,33.6,67.8,61.6c-1.8,1-3.5,2-5.2,3.1
		c0.5,3.4,3.1,6.5,2.1,10.1c-3.9-8.6-8-17.3-13.6-25c-15.4-22.2-38.9-38.7-65-45.8c-23.1-6.3-48.2-5.2-70.7,3.1
		C57.8,25.6,34.7,46,21.6,71.6c-10.7,20.5-15,44.3-12.2,67.3c3.4,29.7,19,57.8,42.2,76.5c3.3,2.6,6.7,5.1,10,7.6
		c-3.3,1.4-6-1.1-8.8-2.6c-1.8,0.7-3.4,1.7-5,2.6C25.1,205.3,9,179.2,3.1,151c-1.5-7.1-2-14.4-3.1-21.6v-8.8
		c1.6-11.9,2.8-24.1,7.1-35.5c7.4-21.1,20-40.5,37.5-54.6c11.7-11,26.4-18.3,41.4-23.7C97.1,2.8,108.9,1.5,120.6,0z"/>
	<path class="st1" d="M114.5,41.7c3.8,9.9,7.7,19.8,10.4,30.1c-9.4,25.4-17.8,51.1-27.2,76.5c-1-2.4-2-4.9-3.8-6.8
		c-3.5,1.1-7.1,2.1-10.7,2.9c-3.2,0.6-4.2,4.2-6.1,6.4c-0.1-0.4-0.2-1.3-0.2-1.8c0.7-3.1,1.9-6.1,3-9.2
		c10.6-30.4,21.3-60.8,31.8-91.2C112.5,46.3,113.4,43.9,114.5,41.7z"/>
	<path class="st1" d="M163.7,134c1.1-1.1,2.1-2.3,3-3.5c7,18.7,13.3,37.7,20.1,56.5c1.7,4.1,1.2,9.4-2.4,12.4
		c-4.9,4.5-13.8,2.3-15.8-4.1c-6.6-19-13.6-38-19.8-57.1c2.6-2.4,5.2-5.5,8.9-6C159.9,131.8,161.8,133.2,163.7,134z"/>
</g>
<g id="_x23_78549eff">
	<path class="st2" d="M116.7,35.6c2.8-5.1,10.6-5.9,14.8-2.1c1.7,1.4,2.6,3.5,3.4,5.6c10.4,29.6,20.8,59.2,31.2,88.8
		c0.3,0.9,0.5,1.7,0.6,2.6c-1,1.2-2,2.4-3,3.5c-1.9-0.8-3.8-2.2-6-1.7c-3.8,0.5-6.3,3.6-8.9,6c-1-2.1-1.8-4.2-2.6-6.4
		c-6.3-18.3-12.9-36.6-19.1-55c-0.6-1.8-1.5-3.4-2.1-5.1c-2.7-10.3-6.7-20.2-10.4-30.1C114.3,39.5,115.8,37.5,116.7,35.6z"/>
	<path class="st2" d="M237.2,70.2c7.6,14.7,11.1,31.1,12.8,47.4v13.8c-1.6,20.7-7.4,41.4-18.6,59C216,215.7,191.3,235.1,163,244
		c-10.2,3.5-20.9,4.8-31.6,6h-12.8c-7.2-0.9-14.4-1.5-21.4-3.2c-17.9-4.1-35.1-12.1-49.3-23.7c1.6-1,3.2-1.9,5-2.6
		c2.8,1.5,5.4,4,8.8,2.6c4.9,2.5,9.6,5.4,14.7,7.7c31,14.6,68.7,14.3,99.4-0.9c24.1-11.5,43.9-31.7,55-56.1
		c11.1-23.7,13.6-51.3,7.3-76.7c-1.1-4.6-2.8-9-3.9-13.6c1-3.6-1.6-6.7-2.1-10.1C233.8,72.2,235.5,71.2,237.2,70.2z"/>
	<path class="st2" d="M119.5,124.7c4.1-0.5,8.2-0.4,12.3-0.1c5.8,0.9,8.8,8.7,4.9,13.2c-3.8,4.5-10.5,3.5-15.7,3.1
		c-4.3-0.3-8-4.5-7.4-8.9C113.8,128.7,116.4,125.7,119.5,124.7z"/>
	<path class="st2" d="M83.2,144.4c3.6-0.8,7.2-1.8,10.7-2.9c1.8,1.9,2.8,4.4,3.8,6.8c-0.3,2.5-1.4,4.8-2.2,7.1
		c-4.5,12.8-9,25.7-13.5,38.5c-1,3-2.8,5.9-5.7,7.2c-4,1.5-8.9,0.7-11.7-2.7c-3.4-3.4-2.5-8.8-0.9-12.8c4.7-12.1,8.2-24.7,13.2-36.6
		c0,0.4,0.2,1.3,0.2,1.8C79,148.6,80,145,83.2,144.4z"/>
</g>
</svg>
